X: 90
T:Missa Faisant regretz / Agnus Dei
N: Derived from Jos0801e-Missa_Faisant_regretz-Agnus.krn
C: Josquin des Prez
%%abc-version 2.0
%%abcx-abcm2ps-target-version 5.9.1 (29 Sep 2008)
%%abc-creator hum2abc beta
%%abcx-conversion-date 2019/02/12 16:15:42
%%abc-edited-by Jesse Rodin
%%abc-edited-by Jesse Rodin; Victoria Chang 2011/09/06
%%abcx-initial-encoding-date 2011/09/06/
%%humdrum-veritas 1683246743
%%humdrum-veritas-data 2893971058
%%linebreak <none>
%%barnumbers 0
L: 1/4
M: 3/1
Q: 1/2=120
%%staves [1 2 3 4]
V: 1 clef=treble
V: 2 clef=treble-8
V: 3 clef=treble-8
V: 4 clef=bass
K: F
[V:1] z12 | 
[V:2] B4G4A4 | 
[V:3] z12 | 
[V:4] z12 | 
[V:1] B4G4A4 | 
[V:2] G4z2g4f2 | 
[V:3] z12 | 
[V:4] z12 | 
[V:1] G2c3BA4G2 | 
[V:2] e2c2e2f2d3e | 
[V:3] c4A4B4 | 
[V:4] z12 | 
[V:1] A6F2G4 | 
[V:2] f3ec2d2G4 | 
[V:3] A4z2B4G2 | 
[V:4] z2F,4D,2E,4 | 
[V:1] F4z2G4E2 | 
[V:2] d4B3AB2c2 | 
[V:3] A4G4z2A2- | 
[V:4] D,4z2_E,4C,2 | 
[V:1] F4E4z2F2- | 
[V:2] F4c3BAGA2 | 
[V:3] A2F2G4F4 | 
[V:4] D,4C,4z2D,2- | 
[V:1] F2D2E4D4 | 
[V:2] F2B4A2B4 | 
[V:3] z4z4z2f2- | 
[V:4] D,2B,,2C,4B,,4 | 
[V:1] z2F2G3ABcd2- | 
[V:2] d4c4B3G | 
[V:3] f2d2e4d4 | 
[V:4] z4z4z2B,2- | 
[V:1] d2B2c4B4 | 
[V:2] G2g3ef2g4 | 
[V:3] z2e4c2d4 | 
[V:4] B,2G,2A,4G,4 | 
[V:1] z2c4A2B4 | 
[V:2] e3de2f2Bcde | 
[V:3] c4z2d4B2 | 
[V:4] z2A,4F,2G,4 | 
[V:1] A4z2d4B2 | 
[V:2] f4d3ef2g2 | 
[V:3] c4B4z2_e2- | 
[V:4] F,4z2B,4G,2 | 
[V:1] c4B4c3B | 
[V:2] cdefg2G2A3B | 
[V:3] e2c2d4c4 | 
[V:4] A,4G,4z2C2- | 
[V:1] G2A2F2G2A2E2 | 
[V:2] c2F2d2B2c3A | 
[V:3] z2f4d2e4 | 
[V:4] C2A,2B,4A,4 | 
[V:1] F2A3GG4^F2 | 
[V:2] A2F2GABcd4- | 
[V:3] d4B2G2A4 | 
[V:4] F,2D,2E,4D,4 | 
[V:1] G12 ||  
[V:2] d12 ||  
[V:3] G12 ||  
[V:4] G,12 ||  
[V:1] [M:2/1]F8 | 
[V:2] [M:2/1]d4d2d2- | 
[V:3] [M:2/1]z8 | 
[V:4] [M:2/1]z8 | 
[V:1] D4E4 | 
[V:2] d2cBc4 | 
[V:3] z8 | 
[V:4] z8 | 
[V:1] D4F4- | 
[V:2] z2d2d2d2- | 
[V:3] z8 | 
[V:4] z8 | 
[V:1] F2D2E4 | 
[V:2] d2^c=B^c4 | 
[V:3] z8 | 
[V:4] z8 | 
[V:1] D8 | 
[V:2] d8 | 
[V:3] B8 | 
[V:4] G,4G,2G,2- | 
[V:1] z8 | 
[V:2] z8 | 
[V:3] G4A4 | 
[V:4] G,2F,E,F,4 | 
[V:1] z8 | 
[V:2] z8 | 
[V:3] G4B4- | 
[V:4] z2G,2G,2G,2- | 
[V:1] z8 | 
[V:2] z8 | 
[V:3] B2G2A4 | 
[V:4] G,2^F,E,F,4 | 
[V:1] z4B4 | 
[V:2] d3GG2g2- | 
[V:3] G8 | 
[V:4] G,8 | 
[V:1] G2A2G2B2- | 
[V:2] g2f2g3G | 
[V:3] z8 | 
[V:4] z8 | 
[V:1] B2G2A4 | 
[V:2] G2g4^f2 | 
[V:3] z8 | 
[V:4] z4D,4 | 
[V:1] G8 | 
[V:2] g8 | 
[V:3] z4_e4 | 
[V:4] E,3C,C,2C2- | 
[V:1] z8 | 
[V:2] z8 | 
[V:3] c2d2c2_e2- | 
[V:4] C2B,2C3C, | 
[V:1] z8 | 
[V:2] z4G4 | 
[V:3] e2c2d4 | 
[V:4] C,2C4=B,2 | 
[V:1] z4c4 | 
[V:2] A3FF2A2- | 
[V:3] c8 | 
[V:4] C8 | 
[V:1] A2B2A2c2- | 
[V:2] A2G2A3F | 
[V:3] z8 | 
[V:4] z8 | 
[V:1] c2A2B4 | 
[V:2] F2A4G2 | 
[V:3] z8 | 
[V:4] z8 | 
[V:1] A8 | 
[V:2] d8 | 
[V:3] z4f4 | 
[V:4] z4z2D2- | 
[V:1] z8 | 
[V:2] z8 | 
[V:3] d2e2d2f2- | 
[V:4] D2C2D3D, | 
[V:1] z8 | 
[V:2] z8 | 
[V:3] f2d2e4 | 
[V:4] D,2D4^C2 | 
[V:1] z4F4 | 
[V:2] z4z2d2- | 
[V:3] d8 | 
[V:4] D8 | 
[V:1] D2E2D2F2- | 
[V:2] d2c2d3D | 
[V:3] z8 | 
[V:4] z8 | 
[V:1] F2D2E4 | 
[V:2] D2d4^c2 | 
[V:3] z8 | 
[V:4] z8 | 
[V:1] D8 | 
[V:2] d8 | 
[V:3] z4B4 | 
[V:4] z4z2G,2- | 
[V:1] z8 | 
[V:2] z8 | 
[V:3] G2A2G2B2- | 
[V:4] G,2F,2G,3G,, | 
[V:1] z8 | 
[V:2] z8 | 
[V:3] B2G2A4 | 
[V:4] G,,2G,4^F,2 | 
[V:1] z4z2d2- | 
[V:2] z2d2d2d2 | 
[V:3] G4B4 | 
[V:4] G,2B,2G,2B,2- | 
[V:1] d2c2B3A | 
[V:2] B2c2_e2d2- | 
[V:3] G2A2G2B2- | 
[V:4] B,A,F,2G,3F, | 
[V:1] F2G4^F2 | 
[V:2] d2c2d4- | 
[V:3] B2G2A4 | 
[V:4] D,2E,2D,4 | 
[V:1] G8 ||  
[V:2] d8 ||  
[V:3] G8 ||  
[V:4] G,8 ||  
[V:1] [M:2/1]A4A3B | 
[V:2] [M:2/1]d4d4 | 
[V:3] [M:2/1]z8 | 
[V:4] [M:2/1]z8 | 
[V:1] c4d4- | 
[V:2] _e4d4 | 
[V:3] z8 | 
[V:4] z8 | 
[V:1] d2c2A4 | 
[V:2] z8 | 
[V:3] f6d2 | 
[V:4] z8 | 
[V:1] G4B2A2- | 
[V:2] z8 | 
[V:3] e4d4 | 
[V:4] z2C,2D,2F,2- | 
[V:1] A2F2E4 | 
[V:2] A4A4 | 
[V:3] z8 | 
[V:4] F,2D,2C,4 | 
[V:1] D2F3GA2 | 
[V:2] B4A4 | 
[V:3] z4z2f2- | 
[V:4] B,,4F,4 | 
[V:1] F2B3AA2- | 
[V:2] z4A2A2 | 
[V:3] f2d2e4 | 
[V:4] z8 | 
[V:1] A2G2A3G | 
[V:2] B4A4 | 
[V:3] d4f2d2 | 
[V:4] z4D,4 | 
[V:1] E2F2G2A2 | 
[V:2] A2A2B2A2 | 
[V:3] e2d2z4 | 
[V:4] C,2D,2G,,2D,2- | 
[V:1] F2E3DD2- | 
[V:2] z2A2A2B2 | 
[V:3] z4f2d2 | 
[V:4] D,2C,2D,4 | 
[V:1] D2^C2D4 | 
[V:2] A4z2D2 | 
[V:3] e4d4 | 
[V:4] z4D,4 | 
[V:1] z4A4 | 
[V:2] D2_E2D4 | 
[V:3] B2G2A4 | 
[V:4] G,,2G,3^F,F,E, | 
[V:1] B4A2A2- | 
[V:2] z2d2d2_e2 | 
[V:3] G4z4 | 
[V:4] G,3F,D,2C,2 | 
[V:1] A2F2G4 | 
[V:2] d4z4 | 
[V:3] f2d2e4 | 
[V:4] D,4z2C,2 | 
[V:1] F4z4 | 
[V:2] z2d2d2_e2 | 
[V:3] d4z4 | 
[V:4] D,3B,,D,2C,2 | 
[V:1] B4B4 | 
[V:2] d4z2d2 | 
[V:3] f2d2e2d2 | 
[V:4] B,,3G,,G,,2G,2 | 
[V:1] A4G4 | 
[V:2] d4_e4 | 
[V:3] z8 | 
[V:4] F,3E,C,2G,2- | 
[V:1] d4c2B2- | 
[V:2] d4z4 | 
[V:3] B2G2A2G2 | 
[V:4] G,A,B,2F,2G,2 | 
[V:1] BAA3GG2- | 
[V:2] z4G2G2 | 
[V:3] F2D2E4 | 
[V:4] D,4z4 | 
[V:1] G2^F2G4- | 
[V:2] A4G4 | 
[V:3] D4z4 | 
[V:4] z2D,2B,,2C,2 | 
[V:1] G8- | 
[V:2] z2D2D4 | 
[V:3] B8 | 
[V:4] G,,3A,,B,,G,,B,2- | 
[V:1] G4z4 | 
[V:2] _E4D4- | 
[V:3] G4A4- | 
[V:4] B,A,G,2F,2G,2- | 
[V:1] z4B4 | 
[V:2] D4z2d2 | 
[V:3] A4G4 | 
[V:4] G,2^F,2G,2G,,2 | 
[V:1] A2A4G2 | 
[V:2] d2_e2d4- | 
[V:3] z2c2A2B2 | 
[V:4] D,2C,2D,2G,,2 | 
[V:1] A4F4 | 
[V:2] d4z4 | 
[V:3] A2F4D2 | 
[V:4] D,3C,D,E,F,2 | 
[V:1] B4A4 | 
[V:2] z8 | 
[V:3] E2D2F2D2 | 
[V:4] G,2G,,2D,4 | 
[V:1] G2G4^F2 | 
[V:2] G2G2A4 | 
[V:3] E4D4 | 
[V:4] z4D,4 | 
[V:1] G4z2D2 | 
[V:2] G4z2d2 | 
[V:3] z2B4G2 | 
[V:4] G,,2G,3F,G,2 | 
[V:1] F2G2B2A2- | 
[V:2] d2_e2d2A2 | 
[V:3] A2G2z2f2- | 
[V:4] D,2G,4F,2- | 
[V:1] A2G2A2F2 | 
[V:2] A2B2A4- | 
[V:3] f2d2e2d2 | 
[V:4] F,2G,2C,2D,2 | 
[V:1] E8- | 
[V:2] A8- | 
[V:3] z4c4- | 
[V:4] A,,8- | 
[V:1] E4F4 | 
[V:2] A4z4 | 
[V:3] c4A4 | 
[V:4] A,,4D,4 | 
[V:1] D4E4 | 
[V:2] z4A4 | 
[V:3] B4A4 | 
[V:4] G,,2D,4^C,2 | 
[V:1] D4z2d2- | 
[V:2] A4B4 | 
[V:3] f4d4 | 
[V:4] D,4z4 | 
[V:1] d2c2d4 | 
[V:2] A4z2d2 | 
[V:3] e4d4 | 
[V:4] z4D,4- | 
[V:1] A2c4B2 | 
[V:2] d2_e2d4- | 
[V:3] z8 | 
[V:4] D,2C,2G,4 | 
[V:1] A4D2E2 | 
[V:2] d4z4 | 
[V:3] z4B2G2 | 
[V:4] F,4G,3F, | 
[V:1] F2G2B2A2- | 
[V:2] z8 | 
[V:3] A2G2z4 | 
[V:4] D,2E,2D,2F,2- | 
[V:1] A2F2E4 | 
[V:2] A4A4 | 
[V:3] z8 | 
[V:4] F,2D,2C,4 | 
[V:1] D4z4 | 
[V:2] B4A4 | 
[V:3] z4f4- | 
[V:4] B,,3C,D,E,F,2- | 
[V:1] F4F4 | 
[V:2] z2A2A4 | 
[V:3] f4d4 | 
[V:4] F,2D,4F,2 | 
[V:1] G4G4 | 
[V:2] B8 | 
[V:3] _e4d4 | 
[V:4] _E,2G,6 | 
[V:1] A2c4B2 | 
[V:2] A4z4 | 
[V:3] z8 | 
[V:4] F,2A,3F,G,2 | 
[V:1] A4G2A2 | 
[V:2] z4z2A2 | 
[V:3] c2A2B2A2 | 
[V:4] A,3F,G,2F,2 | 
[V:1] c2B2c2A2- | 
[V:2] A2B2A4 | 
[V:3] z4z2c2 | 
[V:4] A,2G,2A,3F, | 
[V:1] A2G2F4 | 
[V:2] z8 | 
[V:3] A2B4A2 | 
[V:4] F,2G,2D,4 | 
[V:1] E2A3GF2- | 
[V:2] z4z2D2 | 
[V:3] c2A2B4 | 
[V:4] A,2F,2G,2D,E, | 
[V:1] FED3=B,^C2 | 
[V:2] D4E4 | 
[V:3] A8 | 
[V:4] F,G,A,2A,,4 | 
[V:1] D4z2A2 | 
[V:2] D4z2d2 | 
[V:3] f2d2e2d2 | 
[V:4] z2A,3G,F,E, | 
[V:1] B2c2d3c | 
[V:2] d2_e2d4- | 
[V:3] z4z2f2- | 
[V:4] D,2A,2D,4- | 
[V:1] A2B2c2d2 | 
[V:2] d4z2D2 | 
[V:3] f2d2e2d2- | 
[V:4] D,4z4 | 
[V:1] A2B3AG2- | 
[V:2] D4_E4 | 
[V:3] d2B2G4 | 
[V:4] z8 | 
[V:1] G2^F2G4- | 
[V:2] D4z2d2 | 
[V:3] A4G4- | 
[V:4] D,4B,,2G,,2- | 
[V:1] G8- | 
[V:2] d4_e4 | 
[V:3] G8- | 
[V:4] G,,A,,B,,G,,C,4 | 
[V:1] G8 |]  
[V:2] d8 |]  
[V:3] G8 |]  
[V:4] G,,8 |]  



